Numix-GalliumOS/64/mimetypes/application-vnd.oasis.opendocument.drawing.svg

<svg xmlns="http://www.w3.org/2000/svg" xmlns:xlink="http://www.w3.org/1999/xlink" width="64px" height="64px" viewBox="0 0 64 64" version="1.1">
<g id="surface1">
<path style=" stroke:none;fill-rule:nonzero;fill:rgb(92.941176%,68.627451%,0.784314%);fill-opacity:1;" d="M 10.671875 0 C 9.296875 0 8 1.355469 8 2.789062 L 8 61.210938 C 8 62.566406 9.375 64 10.671875 64 L 53.328125 64 C 54.625 64 56 62.566406 56 61.210938 L 56 18 L 38 0 Z M 10.671875 0 "/>
<path style=" stroke:none;fill-rule:nonzero;fill:rgb(0%,0%,0%);fill-opacity:0.196078;" d="M 42 18 L 56 32 L 56 18 Z M 42 18 "/>
<path style=" stroke:none;fill-rule:nonzero;fill:rgb(100%,100%,100%);fill-opacity:0.392157;" d="M 38 0 L 55.984375 18 L 40.757812 18 C 39.410156 18 38 16.574219 38 15.226562 Z M 38 0 "/>
<path style=" stroke:none;fill-rule:nonzero;fill:rgb(0%,0%,0%);fill-opacity:0.196078;" d="M 8 48 L 8 61.335938 C 8 62.632812 9.375 64 10.664062 64 L 53.335938 64 C 54.625 64 56 62.632812 56 61.335938 L 56 48 Z M 8 48 "/>
<path style=" stroke:none;fill-rule:nonzero;fill:rgb(100%,100%,100%);fill-opacity:1;" d="M 20 44 L 20 22 L 44 22 L 44 44 L 30 44 L 30 32 L 36 32 L 36 36 L 34 36 L 34 40 L 40 40 L 40 26 L 24 26 L 24 44 Z M 20 44 "/>
<path style=" stroke:none;fill-rule:nonzero;fill:rgb(100%,100%,100%);fill-opacity:1;" d="M 20.292969 56.367188 C 20.292969 56.894531 20.316406 57.390625 20.351562 57.851562 C 20.410156 58.304688 20.5 58.699219 20.632812 59.039062 C 20.773438 59.378906 20.96875 59.640625 21.21875 59.839844 C 21.464844 60.039062 21.792969 60.136719 22.214844 60.136719 C 22.617188 60.136719 22.949219 60.039062 23.195312 59.839844 C 23.453125 59.640625 23.648438 59.378906 23.78125 59.039062 C 23.921875 58.683594 24.019531 58.289062 24.054688 57.835938 C 24.113281 57.382812 24.136719 56.894531 24.136719 56.367188 C 24.136719 55.847656 24.113281 55.359375 24.054688 54.90625 C 24.019531 54.4375 23.921875 54.042969 23.78125 53.703125 C 23.648438 53.363281 23.460938 53.101562 23.210938 52.902344 C 22.964844 52.707031 22.636719 52.605469 22.214844 52.605469 C 21.792969 52.605469 21.464844 52.707031 21.21875 52.902344 C 20.96875 53.101562 20.773438 53.375 20.632812 53.71875 C 20.5 54.058594 20.410156 54.453125 20.351562 54.90625 C 20.316406 55.359375 20.292969 55.847656 20.292969 56.367188 M 17.84375 56.367188 C 17.84375 54.511719 18.230469 53.109375 19 52.167969 C 19.773438 51.210938 20.847656 50.742188 22.214844 50.742188 C 23.640625 50.742188 24.722656 51.210938 25.464844 52.167969 C 26.214844 53.109375 26.585938 54.511719 26.585938 56.367188 C 26.585938 58.230469 26.207031 59.632812 25.449219 60.589844 C 24.6875 61.53125 23.617188 62 22.230469 62 C 20.8125 62 19.722656 61.53125 18.964844 60.589844 C 18.214844 59.632812 17.84375 58.230469 17.84375 56.367188 "/>
<path style=" stroke:none;fill-rule:nonzero;fill:rgb(100%,100%,100%);fill-opacity:1;" d="M 30.578125 60.027344 C 30.644531 60.046875 30.71875 60.046875 30.792969 60.046875 C 30.875 60.046875 30.949219 60.046875 31.015625 60.046875 C 31.558594 60.046875 32.011719 59.953125 32.382812 59.765625 C 32.761719 59.582031 33.058594 59.328125 33.28125 58.996094 C 33.523438 58.675781 33.679688 58.289062 33.769531 57.851562 C 33.875 57.398438 33.925781 56.902344 33.925781 56.367188 C 33.925781 55.90625 33.894531 55.453125 33.808594 55.007812 C 33.734375 54.570312 33.597656 54.179688 33.398438 53.84375 C 33.207031 53.503906 32.9375 53.242188 32.597656 53.042969 C 32.261719 52.828125 31.824219 52.730469 31.285156 52.730469 C 31.179688 52.730469 31.0625 52.730469 30.933594 52.746094 C 30.800781 52.746094 30.683594 52.753906 30.578125 52.78125 L 30.578125 60.027344 M 36.375 56.367188 C 36.375 57.363281 36.234375 58.222656 35.945312 58.933594 C 35.675781 59.632812 35.285156 60.203125 34.792969 60.640625 C 34.296875 61.085938 33.703125 61.40625 33.011719 61.613281 C 32.324219 61.808594 31.574219 61.910156 30.757812 61.910156 C 30.320312 61.910156 29.902344 61.894531 29.480469 61.84375 C 29.078125 61.808594 28.640625 61.746094 28.167969 61.652344 L 28.167969 51.121094 C 28.722656 51.015625 29.234375 50.949219 29.71875 50.914062 C 30.199219 50.882812 30.652344 50.859375 31.074219 50.859375 C 31.863281 50.859375 32.589844 50.964844 33.242188 51.171875 C 33.910156 51.386719 34.46875 51.714844 34.933594 52.167969 C 35.386719 52.605469 35.742188 53.183594 35.988281 53.875 C 36.25 54.5625 36.375 55.394531 36.375 56.367188 "/>
<path style=" stroke:none;fill-rule:nonzero;fill:rgb(100%,100%,100%);fill-opacity:1;" d="M 43.023438 52.605469 C 42.445312 52.605469 41.957031 52.695312 41.570312 52.886719 C 41.175781 53.066406 40.855469 53.332031 40.589844 53.671875 C 40.34375 53.992188 40.160156 54.386719 40.046875 54.847656 C 39.9375 55.304688 39.890625 55.816406 39.890625 56.367188 C 39.890625 57.660156 40.113281 58.609375 40.574219 59.230469 C 41.027344 59.832031 41.703125 60.136719 42.585938 60.136719 C 42.734375 60.136719 42.890625 60.128906 43.054688 60.121094 C 43.230469 60.101562 43.386719 60.085938 43.527344 60.0625 L 43.527344 56.128906 L 45.941406 56.128906 L 45.941406 61.511719 C 45.652344 61.605469 45.199219 61.710938 44.589844 61.828125 C 43.988281 61.941406 43.253906 62 42.394531 62 C 41.636719 62 40.953125 61.882812 40.335938 61.652344 C 39.730469 61.40625 39.222656 61.050781 38.792969 60.589844 C 38.355469 60.113281 38.023438 59.527344 37.785156 58.824219 C 37.554688 58.117188 37.4375 57.300781 37.4375 56.367188 C 37.4375 55.453125 37.570312 54.644531 37.851562 53.949219 C 38.125 53.242188 38.496094 52.648438 38.964844 52.167969 C 39.433594 51.691406 39.988281 51.335938 40.632812 51.105469 C 41.265625 50.859375 41.957031 50.742188 42.683594 50.742188 C 43.15625 50.742188 43.574219 50.777344 43.9375 50.839844 C 44.316406 50.898438 44.648438 50.972656 44.917969 51.054688 C 45.191406 51.136719 45.414062 51.222656 45.585938 51.3125 C 45.769531 51.410156 45.910156 51.476562 46 51.527344 L 45.375 53.234375 C 45.085938 53.066406 44.730469 52.929688 44.308594 52.796875 C 43.898438 52.671875 43.460938 52.605469 43.023438 52.605469 "/>
</g>
</svg>

<svg xmlns="http://www.w3.org/2000/svg" viewBox="0 0 64 64">
 <g>
  <path d="m 10.672 0 c -1.375 0 -2.672 1.355 -2.672 2.789 l 0 58.42 c 0 1.355 1.375 2.789 2.672 2.789 l 42.656 0 c 1.297 0 2.672 -1.434 2.672 -2.789 l 0 -43.21 l -18 -18 m -27.328 0" style="fill:#ecaf02;fill-opacity:1;stroke:none;fill-rule:nonzero"/>
  <path d="m 42 18 l 14 14 l 0 -14 m -14 0" style="fill:#000;fill-opacity:0.196;stroke:none;fill-rule:nonzero"/>
  <path d="m 38 0 l 17.984 18 l -15.227 0 c -1.348 0 -2.758 -1.426 -2.758 -2.773 m 0 -15.227" style="fill:#fff;fill-opacity:0.392;stroke:none;fill-rule:nonzero"/>
  <path d="m 8 48 l 0 13.336 c 0 1.297 1.375 2.664 2.664 2.664 l 42.672 0 c 1.289 0 2.664 -1.367 2.664 -2.664 l 0 -13.336 m -48 0" style="fill:#000;fill-opacity:0.196;stroke:none;fill-rule:nonzero"/>
  <path d="m 20 44 l 0 -22 l 24 0 l 0 22 l -14 0 l 0 -12 l 6 0 l 0 4 l -2 0 l 0 4 l 6 0 l 0 -14 l -16 0 l 0 18 m -4 0" style="fill:#fff;fill-opacity:1;stroke:none;fill-rule:nonzero"/>
  <path d="m 20.293 56.37 c 0 0.527 0.023 1.023 0.059 1.484 c 0.059 0.453 0.148 0.848 0.281 1.188 c 0.141 0.34 0.336 0.602 0.586 0.801 c 0.246 0.199 0.574 0.297 0.996 0.297 c 0.402 0 0.734 -0.098 0.98 -0.297 c 0.258 -0.199 0.453 -0.461 0.586 -0.801 c 0.141 -0.355 0.238 -0.75 0.273 -1.203 c 0.059 -0.453 0.082 -0.941 0.082 -1.469 c 0 -0.52 -0.023 -1.01 -0.082 -1.461 c -0.035 -0.469 -0.133 -0.863 -0.273 -1.203 c -0.133 -0.34 -0.32 -0.602 -0.57 -0.801 c -0.246 -0.195 -0.574 -0.297 -0.996 -0.297 c -0.422 0 -0.75 0.102 -0.996 0.297 c -0.25 0.199 -0.445 0.473 -0.586 0.816 c -0.133 0.34 -0.223 0.734 -0.281 1.188 c -0.035 0.453 -0.059 0.941 -0.059 1.461 m -2.449 0 c 0 -1.855 0.387 -3.258 1.156 -4.199 c 0.773 -0.957 1.848 -1.426 3.215 -1.426 c 1.426 0 2.508 0.469 3.25 1.426 c 0.75 0.941 1.121 2.344 1.121 4.199 c 0 1.863 -0.379 3.266 -1.137 4.223 c -0.762 0.941 -1.832 1.41 -3.219 1.41 c -1.418 0 -2.508 -0.469 -3.266 -1.41 c -0.75 -0.957 -1.121 -2.359 -1.121 -4.223" style="fill:#fff;fill-opacity:1;stroke:none;fill-rule:nonzero"/>
  <path d="m 30.578 60.03 c 0.066 0.02 0.141 0.02 0.215 0.02 c 0.082 0 0.156 0 0.223 0 c 0.543 0 0.996 -0.094 1.367 -0.281 c 0.379 -0.184 0.676 -0.438 0.898 -0.77 c 0.242 -0.32 0.398 -0.707 0.488 -1.145 c 0.105 -0.453 0.156 -0.949 0.156 -1.484 c 0 -0.461 -0.031 -0.914 -0.117 -1.359 c -0.074 -0.438 -0.211 -0.828 -0.41 -1.164 c -0.191 -0.34 -0.461 -0.602 -0.801 -0.801 c -0.336 -0.215 -0.773 -0.313 -1.313 -0.313 c -0.105 0 -0.223 0 -0.352 0.016 c -0.133 0 -0.25 0.008 -0.355 0.035 l 0 7.246 m 5.797 -3.66 c 0 0.996 -0.141 1.855 -0.43 2.566 c -0.27 0.699 -0.66 1.27 -1.152 1.707 c -0.496 0.445 -1.09 0.766 -1.781 0.973 c -0.688 0.195 -1.438 0.297 -2.254 0.297 c -0.438 0 -0.855 -0.016 -1.277 -0.066 c -0.402 -0.035 -0.84 -0.098 -1.313 -0.191 l 0 -10.531 c 0.555 -0.105 1.066 -0.172 1.551 -0.207 c 0.48 -0.031 0.934 -0.055 1.355 -0.055 c 0.789 0 1.516 0.105 2.168 0.313 c 0.668 0.215 1.227 0.543 1.691 0.996 c 0.453 0.438 0.809 1.016 1.055 1.707 c 0.262 0.688 0.387 1.52 0.387 2.492" style="fill:#fff;fill-opacity:1;stroke:none;fill-rule:nonzero"/>
  <path d="m 43.02 52.605 c -0.578 0 -1.066 0.09 -1.453 0.281 c -0.395 0.18 -0.715 0.445 -0.98 0.785 c -0.246 0.32 -0.43 0.715 -0.543 1.176 c -0.109 0.457 -0.156 0.969 -0.156 1.52 c 0 1.293 0.223 2.242 0.684 2.863 c 0.453 0.602 1.129 0.906 2.01 0.906 c 0.148 0 0.305 -0.008 0.469 -0.016 c 0.176 -0.02 0.332 -0.035 0.473 -0.059 l 0 -3.934 l 2.414 0 l 0 5.383 c -0.289 0.094 -0.742 0.199 -1.352 0.316 c -0.602 0.113 -1.336 0.172 -2.195 0.172 c -0.758 0 -1.441 -0.117 -2.059 -0.348 c -0.605 -0.246 -1.113 -0.602 -1.543 -1.063 c -0.438 -0.477 -0.77 -1.063 -1.01 -1.766 c -0.23 -0.707 -0.348 -1.523 -0.348 -2.457 c 0 -0.914 0.133 -1.723 0.414 -2.418 c 0.273 -0.707 0.645 -1.301 1.113 -1.781 c 0.469 -0.477 1.023 -0.832 1.668 -1.063 c 0.633 -0.246 1.324 -0.363 2.051 -0.363 c 0.473 0 0.891 0.035 1.254 0.098 c 0.379 0.059 0.711 0.133 0.98 0.215 c 0.273 0.082 0.496 0.168 0.668 0.258 c 0.184 0.098 0.324 0.164 0.414 0.215 l -0.625 1.707 c -0.289 -0.168 -0.645 -0.305 -1.066 -0.438 c -0.41 -0.125 -0.848 -0.191 -1.285 -0.191" style="fill:#fff;fill-opacity:1;stroke:none;fill-rule:nonzero"/>
 </g>
</svg>
